src/home/img/icon-opensource.svg

<svg height="78" viewBox="0 0 87 78" width="87" xmlns="http://www.w3.org/2000/svg" xmlns:xlink="http://www.w3.org/1999/xlink"><linearGradient id="a" x1="50%" x2="50%" y1="0%" y2="100%"><stop offset="0" stop-color="#3f6abc"/><stop offset="1" stop-color="#1851be"/></linearGradient><filter id="b" height="107.4%" width="107.4%" x="-3.7%" y="-3.7%"><feGaussianBlur in="SourceGraphic" stdDeviation=".65"/></filter><linearGradient id="c" x1="0%" x2="0%" y1="0%" y2="100%"><stop offset="0" stop-color="#fff"/><stop offset="1" stop-color="#aec3eb"/></linearGradient><filter id="d" height="143.3%" width="110.3%" x="-5.1%" y="-21.7%"><feGaussianBlur in="SourceGraphic" stdDeviation=".65"/></filter><filter id="e" height="108.3%" width="113.9%" x="-7%" y="-4.1%"><feGaussianBlur in="SourceGraphic" stdDeviation=".65"/></filter><mask id="f" fill="#fff"><path d="m.5 13.84c0-7.367 5.973-13.34 13.34-13.34h48.32c7.367 0 13.34 5.973 13.34 13.34v48.32c0 7.367-5.973 13.34-13.34 13.34h-48.32c-7.367 0-13.34-5.973-13.34-13.34z" fill="#fff" fill-rule="evenodd"/></mask><g fill="none" fill-rule="evenodd" transform="translate(1 1)"><path d="m.5 13.84c0-7.367 5.973-13.34 13.34-13.34h48.32c7.367 0 13.34 5.973 13.34 13.34v48.32c0 7.367-5.973 13.34-13.34 13.34h-48.32c-7.367 0-13.34-5.973-13.34-13.34z" mask="url(#f)"/><path d="m.5 13.84c0-7.367 5.973-13.34 13.34-13.34h48.32c7.367 0 13.34 5.973 13.34 13.34v48.32c0 7.367-5.973 13.34-13.34 13.34h-48.32c-7.367 0-13.34-5.973-13.34-13.34z"/><path d="m.5 13.84c0-7.367 5.973-13.34 13.34-13.34h48.32c7.367 0 13.34 5.973 13.34 13.34v48.32c0 7.367-5.973 13.34-13.34 13.34h-48.32c-7.367 0-13.34-5.973-13.34-13.34z"/><g fill-rule="nonzero"><path d="m.5 13.84c0-7.367 5.973-13.34 13.34-13.34h48.32c7.367 0 13.34 5.973 13.34 13.34v48.32c0 7.367-5.973 13.34-13.34 13.34h-48.32c-7.367 0-13.34-5.973-13.34-13.34z" fill="url(#a)" filter="url(#b)" stroke="#fff" stroke-opacity=".01" stroke-width="1.68"/><path d="m.5 13.84c0-7.367 5.973-13.34 13.34-13.34h48.32c7.367 0 13.34 5.973 13.34 13.34v48.32c0 7.367-5.973 13.34-13.34 13.34h-48.32c-7.367 0-13.34-5.973-13.34-13.34z" fill="url(#a)" stroke="#fff" stroke-opacity=".01" stroke-width="1.68"/><g fill="url(#c)" transform="translate(16 11)"><path d="m69 41.7v3.6c0 1.4911688-1.1599895 2.7-2.5909091 2.7h-32.8181818c-1.4309196 0-2.5909091-1.2088312-2.5909091-2.7v-3.6c0-1.4911688 1.1599895-2.7 2.5909091-2.7h32.8181818c1.4309196 0 2.5909091 1.2088312 2.5909091 2.7z" filter="url(#d)"/><path d="m3.13860613 46.2435455-2.39814872-2.4386918c-.98727655-1.0081784-.98727655-2.6401734 0-3.6483518l16.26937899-16.6554257-16.26937899-16.65327322c-.98727655-1.0081784-.98727655-2.64017344 0-3.64835183l2.39814872-2.44299666c.99015592-1.00860599 2.5954462-1.00860599 3.58560211 0l20.53322406 20.91829341c.9900903 1.0086729.9900903 2.6439838 0 3.6526566l-20.53322406 20.916141c-.99015591 1.008606-2.59544619 1.008606-3.58560211 0z" filter="url(#e)"/><path d="m69 41.7v3.6c0 1.4911688-1.1599895 2.7-2.5909091 2.7h-32.8181818c-1.4309196 0-2.5909091-1.2088312-2.5909091-2.7v-3.6c0-1.4911688 1.1599895-2.7 2.5909091-2.7h32.8181818c1.4309196 0 2.5909091 1.2088312 2.5909091 2.7z"/><path d="m.74045741 43.8048537c-.98727655-1.0081784-.98727655-2.6401734 0-3.6483518l16.26937899-16.6554257-16.26937899-16.65327322c-.98727655-1.0081784-.98727655-2.64017344 0-3.64835183l2.39814872-2.44299666c.99015592-1.00860599 2.5954462-1.00860599 3.58560211 0l20.53322406 20.91829341c.9900903 1.0086729.9900903 2.6439838 0 3.6526566l-20.53322406 20.916141c-.99015591 1.008606-2.59544619 1.008606-3.58560211 0z"/></g></g></g></svg>

<svg xmlns="http://www.w3.org/2000/svg" xmlns:xlink="http://www.w3.org/1999/xlink" width="87" height="78" viewBox="0 0 87 78">
  <defs>
    <path id="icon-opensource-a" d="M0.5,13.84 C0.5,6.473 6.473,0.5 13.84,0.5 L62.16,0.5 C69.527,0.5 75.5,6.473 75.5,13.84 L75.5,62.16 C75.5,69.527 69.527,75.5 62.16,75.5 L13.84,75.5 C6.473,75.5 0.5,69.527 0.5,62.16 L0.5,13.84 Z"/>
    <linearGradient id="icon-opensource-c" x1="50%" x2="50%" y1="0%" y2="100%">
      <stop offset="0%" stop-color="#3F6ABC"/>
      <stop offset="100%" stop-color="#1851BE"/>
    </linearGradient>
    <filter id="icon-opensource-d" width="107.4%" height="107.4%" x="-3.7%" y="-3.7%" filterUnits="objectBoundingBox">
      <feGaussianBlur in="SourceGraphic" stdDeviation=".65"/>
    </filter>
    <linearGradient id="icon-opensource-e" x1="0%" x2="0%" y1="0%" y2="100%">
      <stop offset="0%" stop-color="#FFF"/>
      <stop offset="100%" stop-color="#AEC3EB"/>
    </linearGradient>
    <filter id="icon-opensource-f" width="110.3%" height="143.3%" x="-5.1%" y="-21.7%" filterUnits="objectBoundingBox">
      <feGaussianBlur in="SourceGraphic" stdDeviation=".65"/>
    </filter>
    <linearGradient id="icon-opensource-g" x1="0%" x2="0%" y1="0%" y2="100%">
      <stop offset="0%" stop-color="#FFF"/>
      <stop offset="100%" stop-color="#AEC3EB"/>
    </linearGradient>
    <filter id="icon-opensource-h" width="113.9%" height="108.3%" x="-7%" y="-4.1%" filterUnits="objectBoundingBox">
      <feGaussianBlur in="SourceGraphic" stdDeviation=".65"/>
    </filter>
  </defs>
  <g fill="none" fill-rule="evenodd" transform="translate(1 1)">
    <mask id="icon-opensource-b" fill="#fff">
      <use xlink:href="#icon-opensource-a"/>
    </mask>
    <path d="M0.5,13.84 C0.5,6.473 6.473,0.5 13.84,0.5 L62.16,0.5 C69.527,0.5 75.5,6.473 75.5,13.84 L75.5,62.16 C75.5,69.527 69.527,75.5 62.16,75.5 L13.84,75.5 C6.473,75.5 0.5,69.527 0.5,62.16 L0.5,13.84 Z" mask="url(#icon-opensource-b)"/>
    <path d="M0.5,13.84 C0.5,6.473 6.473,0.5 13.84,0.5 L62.16,0.5 C69.527,0.5 75.5,6.473 75.5,13.84 L75.5,62.16 C75.5,69.527 69.527,75.5 62.16,75.5 L13.84,75.5 C6.473,75.5 0.5,69.527 0.5,62.16 L0.5,13.84 Z"/>
    <path d="M0.5,13.84 C0.5,6.473 6.473,0.5 13.84,0.5 L62.16,0.5 C69.527,0.5 75.5,6.473 75.5,13.84 L75.5,62.16 C75.5,69.527 69.527,75.5 62.16,75.5 L13.84,75.5 C6.473,75.5 0.5,69.527 0.5,62.16 L0.5,13.84 Z"/>
    <path fill="url(#icon-opensource-c)" fill-rule="nonzero" stroke="#FFF" stroke-opacity=".01" stroke-width="1.68" d="M0.5,13.84 C0.5,6.473 6.473,0.5 13.84,0.5 L62.16,0.5 C69.527,0.5 75.5,6.473 75.5,13.84 L75.5,62.16 C75.5,69.527 69.527,75.5 62.16,75.5 L13.84,75.5 C6.473,75.5 0.5,69.527 0.5,62.16 L0.5,13.84 Z" filter="url(#icon-opensource-d)"/>
    <path fill="url(#icon-opensource-c)" fill-rule="nonzero" stroke="#FFF" stroke-opacity=".01" stroke-width="1.68" d="M0.5,13.84 C0.5,6.473 6.473,0.5 13.84,0.5 L62.16,0.5 C69.527,0.5 75.5,6.473 75.5,13.84 L75.5,62.16 C75.5,69.527 69.527,75.5 62.16,75.5 L13.84,75.5 C6.473,75.5 0.5,69.527 0.5,62.16 L0.5,13.84 Z"/>
    <g fill-rule="nonzero" transform="translate(16 11)">
      <path fill="url(#icon-opensource-e)" d="M69,41.7 L69,45.3 C69,46.7911688 67.8400105,48 66.4090909,48 L33.5909091,48 C32.1599895,48 31,46.7911688 31,45.3 L31,41.7 C31,40.2088312 32.1599895,39 33.5909091,39 L66.4090909,39 C67.8400105,39 69,40.2088312 69,41.7 L69,41.7 Z" filter="url(#icon-opensource-f)"/>
      <path fill="url(#icon-opensource-g)" d="M3.13860613,46.2435455 L0.740457407,43.8048537 C-0.246819136,42.7966753 -0.246819136,41.1646803 0.740457407,40.1565019 L17.0098364,23.5010762 L0.740457407,6.84780298 C-0.246819136,5.83962458 -0.246819136,4.20762954 0.740457407,3.19945115 L3.13860613,0.756454491 C4.12876205,-0.252151497 5.73405233,-0.252151497 6.72420824,0.756454491 L27.2574323,21.6747479 C28.2475226,22.6834208 28.2475226,24.3187317 27.2574323,25.3274045 L6.72420824,46.2435455 C5.73405233,47.2521515 4.12876205,47.2521515 3.13860613,46.2435455 L3.13860613,46.2435455 Z" filter="url(#icon-opensource-h)"/>
      <path fill="url(#icon-opensource-e)" d="M69,41.7 L69,45.3 C69,46.7911688 67.8400105,48 66.4090909,48 L33.5909091,48 C32.1599895,48 31,46.7911688 31,45.3 L31,41.7 C31,40.2088312 32.1599895,39 33.5909091,39 L66.4090909,39 C67.8400105,39 69,40.2088312 69,41.7 L69,41.7 Z"/>
      <path fill="url(#icon-opensource-g)" d="M0.740457407,43.8048537 C-0.246819136,42.7966753 -0.246819136,41.1646803 0.740457407,40.1565019 L17.0098364,23.5010762 L0.740457407,6.84780298 C-0.246819136,5.83962458 -0.246819136,4.20762954 0.740457407,3.19945115 L3.13860613,0.756454491 C4.12876205,-0.252151497 5.73405233,-0.252151497 6.72420824,0.756454491 L27.2574323,21.6747479 C28.2475226,22.6834208 28.2475226,24.3187317 27.2574323,25.3274045 L6.72420824,46.2435455 C5.73405233,47.2521515 4.12876205,47.2521515 3.13860613,46.2435455 L0.740457407,43.8048537 Z"/>
    </g>
  </g>
</svg>
